packages/components/icon/src/assets/icons/collaboration.svg

<svg width="24" height="24" viewBox="0 0 24 24" fill="none" xmlns="http://www.w3.org/2000/svg">
<path fill-rule="evenodd" clip-rule="evenodd" d="M6.60124 17.4721L6.57955 17.1901C5.58161 16.626 4.7717 15.9174 4.14979 15.064C3.52789 14.2107 3.15909 13.2707 3.04339 12.2438C3.01446 11.9256 3 11.6942 3 11.5496C3 10.3347 3.35795 9.18854 4.07386 8.11105C4.78978 7.03357 5.77324 6.13327 7.02428 5.41012C8.27532 4.68698 9.66735 4.23864 11.2004 4.06508C11.6054 4.02169 12.0176 4 12.437 4C13.9122 4 15.2789 4.26756 16.5372 4.80269C17.7955 5.33781 18.8259 6.07902 19.6286 7.02634C20.4313 7.97366 20.905 9.04028 21.0496 10.2262C21.0785 10.5155 21.093 10.7397 21.093 10.8988C21.093 12.1136 20.735 13.2634 20.0191 14.3481C19.3032 15.4329 18.3197 16.3332 17.0687 17.0491C15.8177 17.765 14.4184 18.2097 12.8709 18.3833C12.2924 18.4411 11.8512 18.47 11.5475 18.47C11.2727 18.47 10.8461 18.4411 10.2676 18.3833C9.4721 19.2076 8.65496 19.8006 7.81612 20.1622C6.97727 20.5238 6.23244 20.7045 5.58161 20.7045C5.26343 20.7045 5.03203 20.6648 4.8874 20.5852C4.74277 20.5057 4.72831 20.4225 4.84401 20.3357C6.0155 19.439 6.60124 18.4845 6.60124 17.4721ZM12.0465 14.6085C12.1043 14.6085 12.1513 14.5832 12.1875 14.5325C12.2237 14.4819 12.2417 14.4132 12.2417 14.3264V12.157H15.9081V10.1612H12.2417V7.99174C12.2417 7.90496 12.2237 7.83626 12.1875 7.78564C12.1513 7.73502 12.1043 7.70971 12.0465 7.70971C11.9597 7.70971 11.8874 7.73864 11.8295 7.79649L7.94628 10.8554C7.84504 10.9421 7.79442 11.0434 7.79442 11.1591C7.79442 11.2748 7.84504 11.376 7.94628 11.4628L11.8295 14.5217C11.8874 14.5795 11.9597 14.6085 12.0465 14.6085Z" fill="currentColor"/>
</svg>

<svg viewBox="0 0 24 24" fill="none" xmlns="http://www.w3.org/2000/svg"><path fill-rule="evenodd" clip-rule="evenodd" d="m6.601 17.472-.021-.282c-.998-.564-1.808-1.273-2.43-2.126a5.822 5.822 0 0 1-1.107-2.82A8.622 8.622 0 0 1 3 11.55c0-1.215.358-2.361 1.074-3.439.716-1.077 1.7-1.978 2.95-2.7 1.251-.724 2.643-1.172 4.176-1.346.405-.043.818-.065 1.237-.065 1.475 0 2.842.268 4.1.803 1.259.535 2.289 1.276 3.092 2.223.802.948 1.276 2.014 1.42 3.2.03.29.044.514.044.673 0 1.215-.358 2.364-1.074 3.45-.716 1.084-1.7 1.984-2.95 2.7-1.251.716-2.65 1.16-4.198 1.334-.579.058-1.02.087-1.324.087a14.3 14.3 0 0 1-1.28-.087c-.795.825-1.612 1.418-2.45 1.78-.84.36-1.585.541-2.235.541-.319 0-.55-.04-.695-.119-.144-.08-.159-.163-.043-.25 1.171-.896 1.757-1.85 1.757-2.863Zm5.446-2.864a.166.166 0 0 0 .14-.075.348.348 0 0 0 .055-.207v-2.169h3.666v-1.996h-3.666v-2.17a.348.348 0 0 0-.055-.205.166.166 0 0 0-.14-.076.295.295 0 0 0-.218.086l-3.883 3.06a.39.39 0 0 0-.152.303c0 .116.051.217.152.304l3.883 3.059c.058.057.13.086.217.086Z" fill="currentColor"/></svg>
